(Exported by FreeCAD)
(Post Processor: mach3_mach4_post)
(Output Time:2024-04-03 16:41:15.089304)
(begin preamble)
G17 G54 G40 G49 G80 G90
G21
(begin operation: G54)
(machine: mach3_4, mm/min)
G54
G0 Z8.500
(finish operation: G54)
(begin operation: TC: Default Tool)
(machine: mach3_4, mm/min)
(TC: Default Tool)
M5
M6 T1 
G43 H1
(finish operation: TC: Default Tool)
(begin operation: Profile)
(machine: mach3_4, mm/min)
(Profile)
(Compensated Tool Path. Diameter: 1.5)
G0 Z8.500
G0 X33.576 Y10.076
G0 Z1.000
G1 X33.576 Y10.076 Z-3.500 F60.000
G2 X25.528 Y-14.104 Z-3.500 I-10.076 J-10.076 F120.000
G2 X21.472 Y14.104 Z-3.500 I-2.028 J14.104 F120.000
G2 X33.576 Y10.076 Z-3.500 I2.028 J-14.104 F120.000
G0 Z8.500
G0 X40.224 Y-16.005 Z8.500
G0 X40.224 Y-16.005 Z1.000
G1 X40.224 Y-16.005 Z-3.500 F60.000
G2 X40.766 Y-17.922 Z-3.500 I0.246 J-0.965 F120.000
G2 X40.175 Y-16.019 Z-3.500 I-0.295 J0.952 F120.000
G2 X40.224 Y-16.005 Z-3.500 I0.295 J-0.952 F120.000
G0 Z8.500
G0 X7.242 Y16.274 Z8.500
G0 X7.242 Y16.274 Z1.000
G1 X7.242 Y16.274 Z-3.500 F60.000
G2 X6.825 Y16.019 Z-3.500 I-0.712 J0.697 F120.000
G2 X6.234 Y17.922 Z-3.500 I-0.295 J0.952 F120.000
G2 X7.242 Y16.274 Z-3.500 I0.295 J-0.952 F120.000
G0 Z8.500
G0 X-5.534 Y16.920 Z8.500
G0 X-5.534 Y16.920 Z1.000
G1 X-5.534 Y16.920 Z-3.500 F60.000
G2 X-6.234 Y16.019 Z-3.500 I-0.995 J0.050 F120.000
G2 X-7.481 Y16.675 Z-3.500 I-0.295 J0.952 F120.000
G2 X-6.825 Y17.922 Z-3.500 I0.952 J0.295 F120.000
G2 X-5.534 Y16.920 Z-3.500 I0.295 J-0.952 F120.000
G0 Z8.500
G0 X-13.127 Y9.770 Z8.500
G0 X-13.127 Y9.770 Z1.000
G1 X-13.127 Y9.770 Z-3.500 F60.000
G2 X-21.472 Y-14.104 Z-3.500 I-10.373 J-9.770 F120.000
G2 X-37.604 Y-2.028 Z-3.500 I-2.028 J14.104 F120.000
G2 X-25.528 Y14.104 Z-3.500 I14.104 J2.028 F120.000
G2 X-13.127 Y9.770 Z-3.500 I2.028 J-14.104 F120.000
G0 Z8.500
G0 X-39.758 Y-16.274 Z8.500
G0 X-39.758 Y-16.274 Z1.000
G1 X-39.758 Y-16.274 Z-3.500 F60.000
G2 X-40.175 Y-17.922 Z-3.500 I-0.712 J-0.697 F120.000
G2 X-40.766 Y-16.019 Z-3.500 I-0.295 J0.952 F120.000
G2 X-39.758 Y-16.274 Z-3.500 I0.295 J-0.952 F120.000
G0 Z8.500
G0 Z8.500
(finish operation: Profile)
(begin postamble)
M05
G17 G54 G90 G80 G40
M2
